map_marker_monochrome/openmoji_latte_macchiato.svg

<svg xmlns="http://www.w3.org/2000/svg" width="24" height="24" viewBox="0 0 24 24"> <g transform="translate(5.056861680000001 0.0) scale(0.48)">
  
  <g
     id="line-supplement"
     transform="translate(-21.033482,-11)">
    <path
       fill="none"
       stroke="#000"
       stroke-linecap="round"
       stroke-width="2"
       d="M 45,42 H 26"
       id="path2" />
    <path
       fill="none"
       stroke="#000"
       stroke-linecap="round"
       stroke-width="2"
       d="M 45,24 H 25.5"
       id="path4" />
    <path
       fill="none"
       stroke="#000"
       stroke-linecap="round"
       stroke-width="2"
       d="M 45.5,17 H 25.1393"
       id="path6" />
  </g>
  <g
     id="line"
     transform="translate(-21.033482,-11)">
    <path
       fill="#000"
       d="m 22.0341,13.0331 -0.9995,0.033 z M 48.9625,13.036 47.9632,13 v 0 z M 48.8557,16 47.8564,15.964 47.819,17 h 1.0367 z m 2e-4,0 0.9993,0.036 L 49.8926,15 h -1.0367 z m -1.5163,42.072 0.9993,0.036 z M 23.5243,58.0661 22.5248,58.0992 Z M 22.1324,16 23.1318,15.9669 23.0998,15 h -0.9674 z m -2e-4,0 -0.9994,0.0331 0.032,0.9669 h 0.9674 z m 0.9013,-5 c -1.1305,0 -2.0363,0.9363 -1.9989,2.0661 L 23.0335,13 v 0 z m 24.9297,0 H 23.0335 v 2 h 24.9297 z m 1.9987,2.072 C 50.0027,11.94 49.096,11 47.9632,11 v 2 0 z M 49.8551,16.036 49.9619,13.072 47.9632,13 47.8564,15.964 Z M 48.8557,17 h 2e-4 v -2 h -2e-4 z m -0.9992,-1.036 -1.5163,42.072 1.9987,0.072 1.5163,-42.072 z M 46.3402,58.036 C 46.3208,58.5739 45.8791,59 45.3408,59 v 2 c 1.6149,0 2.9399,-1.2782 2.9981,-2.892 z M 45.3408,59 H 25.5232 v 2 h 19.8176 z m -19.8176,0 c -0.5394,0 -0.9816,-0.4278 -0.9995,-0.9669 l -1.9989,0.0661 C 22.5783,59.7166 23.9049,61 25.5232,61 Z m -0.9995,-0.9669 -1.3919,-42.0662 -1.9989,0.0662 1.3919,42.0661 z M 22.1322,17 h 2e-4 v -2 h -2e-4 z m -1.0976,-3.9339 0.0982,2.967 1.9989,-0.0662 L 23.0335,13 Z"
       id="path9" />
    <path
       fill="none"
       stroke="#000"
       stroke-linecap="round"
       stroke-width="2"
       d="m 34,57 h 9.5351 c 0.5384,0 0.9801,-0.4263 0.9993,-0.9643 L 46,15"
       id="path11" />
  </g>
</g></svg>

<svg xmlns="http://www.w3.org/2000/svg" width="24" height="24" viewBox="0 0 24 24"> <g transform="scale(0.333333333)">  <g id="line-supplement">
    <path fill="none" stroke="#000" stroke-linecap="round" stroke-width="2" d="M45 42H26"/>
    <path fill="none" stroke="#000" stroke-linecap="round" stroke-width="2" d="M45 24H25.5"/>
    <path fill="none" stroke="#000" stroke-linecap="round" stroke-width="2" d="M45.5 17H25.1393"/>
  </g>
  <g id="line">
    <path fill="#000" d="M22.0341 13.0331L21.0346 13.0661L22.0341 13.0331ZM48.9625 13.036L47.9632 13V13L48.9625 13.036ZM48.8557 16L47.8564 15.964L47.819 17H48.8557V16ZM48.8559 16L49.8552 16.036L49.8926 15H48.8559V16ZM47.3396 58.072L48.3389 58.108L47.3396 58.072ZM23.5243 58.0661L22.5248 58.0992L23.5243 58.0661ZM22.1324 16L23.1318 15.9669L23.0998 15H22.1324V16ZM22.1322 16L21.1328 16.0331L21.1648 17H22.1322V16ZM23.0335 11C21.903 11 20.9972 11.9363 21.0346 13.0661L23.0335 13V13V11ZM47.9632 11H23.0335V13H47.9632V11ZM49.9619 13.072C50.0027 11.94 49.096 11 47.9632 11V13V13L49.9619 13.072ZM49.8551 16.036L49.9619 13.072L47.9632 13L47.8564 15.964L49.8551 16.036ZM48.8557 17H48.8559V15H48.8557V17ZM47.8565 15.964L46.3402 58.036L48.3389 58.108L49.8552 16.036L47.8565 15.964ZM46.3402 58.036C46.3208 58.5739 45.8791 59 45.3408 59V61C46.9557 61 48.2807 59.7218 48.3389 58.108L46.3402 58.036ZM45.3408 59H25.5232V61H45.3408V59ZM25.5232 59C24.9838 59 24.5416 58.5722 24.5237 58.0331L22.5248 58.0992C22.5783 59.7166 23.9049 61 25.5232 61V59ZM24.5237 58.0331L23.1318 15.9669L21.1329 16.0331L22.5248 58.0992L24.5237 58.0331ZM22.1322 17H22.1324V15H22.1322V17ZM21.0346 13.0661L21.1328 16.0331L23.1317 15.9669L23.0335 13L21.0346 13.0661Z"/>
    <path fill="none" stroke="#000" stroke-linecap="round" stroke-width="2" d="M34 57H43.5351C44.0735 57 44.5152 56.5737 44.5344 56.0357L46 15"/>
  </g></g></svg>
